img/svg/google.svg

<svg width="14" height="14" viewBox="0 0 14 14"  xmlns="http://www.w3.org/2000/svg">
<path d="M7.1401 6.00254H13.7237C13.7964 6.40815 13.8327 6.7956 13.8327 7.16488C13.8327 8.47858 13.5572 9.65152 13.0063 10.6837C12.4554 11.7159 11.6699 12.5226 10.6498 13.1038C9.62977 13.6849 8.45985 13.9755 7.1401 13.9755C6.18964 13.9755 5.28458 13.7924 4.42493 13.4261C3.56528 13.0599 2.82368 12.565 2.20012 11.9414C1.57657 11.3179 1.08167 10.5763 0.715407 9.7166C0.349146 8.85695 0.166016 7.95189 0.166016 7.00143C0.166016 6.05097 0.349146 5.14591 0.715407 4.28626C1.08167 3.4266 1.57657 2.685 2.20012 2.06145C2.82368 1.4379 3.56528 0.942995 4.42493 0.576735C5.28458 0.210474 6.18964 0.0273438 7.1401 0.0273438C8.95627 0.0273438 10.5151 0.63576 11.8167 1.85259L9.91884 3.67784C9.17421 2.95743 8.24796 2.59722 7.1401 2.59722C6.35915 2.59722 5.63722 2.79397 4.97432 3.18748C4.31142 3.58098 3.78624 4.11523 3.3988 4.79024C3.01135 5.46525 2.81762 6.20231 2.81762 7.00143C2.81762 7.80054 3.01135 8.5376 3.3988 9.21261C3.78624 9.88762 4.31142 10.4219 4.97432 10.8154C5.63722 11.2089 6.35915 11.4056 7.1401 11.4056C7.66679 11.4056 8.1511 11.333 8.59304 11.1877C9.03497 11.0424 9.3982 10.8608 9.68274 10.6428C9.96727 10.4249 10.2155 10.1767 10.4274 9.89822C10.6393 9.61974 10.7951 9.35639 10.895 9.10818C10.9949 8.85997 11.063 8.62387 11.0993 8.39988H7.1401V6.00254Z" />
</svg>

<svg width="14" height="14" xmlns="http://www.w3.org/2000/svg"><path d="M7.14 6.003h6.584c.072.405.109.793.109 1.162 0 1.314-.276 2.487-.827 3.519a5.966 5.966 0 01-2.356 2.42c-1.02.58-2.19.872-3.51.872-.95 0-1.855-.184-2.715-.55A6.972 6.972 0 012.2 11.941 6.973 6.973 0 01.715 9.717 6.856 6.856 0 01.166 7c0-.95.183-1.855.55-2.715A6.974 6.974 0 012.2 2.061 6.974 6.974 0 014.425.577 6.856 6.856 0 017.14.027c1.816 0 3.375.609 4.677 1.826L9.919 3.678c-.745-.72-1.671-1.08-2.779-1.08-.78 0-1.503.196-2.166.59A4.35 4.35 0 003.4 4.79a4.365 4.365 0 00-.581 2.211c0 .8.193 1.537.58 2.212a4.35 4.35 0 001.576 1.602c.663.394 1.385.59 2.166.59a4.63 4.63 0 001.453-.217c.442-.146.805-.327 1.09-.545.284-.218.533-.466.744-.745a3.47 3.47 0 00.468-.79c.1-.248.168-.484.204-.708H7.14V6.003z"/></svg>
